X:1
T:My Irish Molly-o
M:4/4
L:1/8
K:A
 cc c3/2 B/2 AF F3/2 G/2| AF EF C4| c c/2c/2 c3/2 B/2 AF F3/2 G/2|\
 AF c=c B2 z c| cc c3/2 B/2 AF F3/2 G/2| AF EF C3 C| CF FG AB c3/2 B/2|\
 AF F=F ^F2 G2| A2 G3 C=C ^C| G2 F6| E2 F3 GB A| d8| d2 c3 G=G ^G|\
 B2 A3 AB =c| c2 F3 GA F| B8| E2 F3 GB A| A2 G6| G2 A3 ^AB =c| c8|\
 cc c3/2 B/2 AF F3/2 G/2| AF FG AF F=F| E c2 A E2 B2| A3 z2||
